www/assets/icons/perm_data_setting.svg

<svg width="24" height="24" viewBox="0 0 24 24" xmlns="http://www.w3.org/2000/svg" fill='currentColor'><g clip-path="url(#clip0_1616_3037)"><path d="M19.0593 11.5C19.3993 11.5 19.7293 11.53 20.0593 11.57L20.0693 0L0.0693359 20H11.6293C11.5893 19.67 11.5593 19.34 11.5593 19C11.5593 14.86 14.9193 11.5 19.0593 11.5ZM22.7693 19.49C22.7893 19.33 22.8093 19.17 22.8093 19C22.8093 18.83 22.7993 18.67 22.7693 18.51L23.8293 17.68C23.9193 17.6 23.9493 17.47 23.8893 17.36L22.8893 15.63C22.8293 15.52 22.6993 15.48 22.5793 15.52L21.3393 16.02C21.0793 15.82 20.7993 15.65 20.4893 15.53L20.2993 14.21C20.2893 14.09 20.1793 14 20.0593 14H18.0593C17.9393 14 17.8293 14.09 17.8093 14.21L17.6193 15.53C17.3193 15.66 17.0293 15.82 16.7693 16.02L15.5293 15.52C15.4193 15.48 15.2893 15.52 15.2193 15.63L14.2193 17.36C14.1593 17.47 14.1793 17.6 14.2793 17.68L15.3393 18.51C15.3193 18.67 15.3093 18.83 15.3093 19C15.3093 19.17 15.3193 19.33 15.3393 19.49L14.2793 20.32C14.1893 20.4 14.1593 20.53 14.2193 20.64L15.2193 22.37C15.2793 22.48 15.4093 22.52 15.5293 22.48L16.7693 21.98C17.0293 22.18 17.3093 22.35 17.6193 22.47L17.8093 23.79C17.8293 23.91 17.9293 24 18.0593 24H20.0593C20.1793 24 20.2893 23.91 20.3093 23.79L20.4993 22.47C20.7993 22.34 21.0893 22.18 21.3393 21.98L22.5893 22.48C22.6993 22.52 22.8293 22.48 22.8993 22.37L23.8993 20.64C23.9593 20.53 23.9293 20.4 23.8393 20.32L22.7693 19.49ZM19.0593 20.5C18.2293 20.5 17.5593 19.83 17.5593 19C17.5593 18.17 18.2293 17.5 19.0593 17.5C19.8893 17.5 20.5593 18.17 20.5593 19C20.5593 19.83 19.8893 20.5 19.0593 20.5Z"/></g><defs><clipPath id="clip0_1616_3037"><rect width="24" height="24"/></clipPath></defs></svg>

<svg xmlns="http://www.w3.org/2000/svg" width="24" height="24" viewBox="0 0 24 24" fill='currentColor'><g clip-path="url(#a)"><path d="M19.06 11.5c.34 0 .67.03 1 .07L20.07 0l-20 20h11.56c-.04-.33-.07-.66-.07-1 0-4.14 3.36-7.5 7.5-7.5m3.71 7.99c.02-.16.04-.32.04-.49s-.01-.33-.04-.49l1.06-.83a.26.26 0 0 0 .06-.32l-1-1.73c-.06-.11-.19-.15-.31-.11l-1.24.5c-.26-.2-.54-.37-.85-.49l-.19-1.32c-.01-.12-.12-.21-.24-.21h-2c-.12 0-.23.09-.25.21l-.19 1.32c-.3.13-.59.29-.85.49l-1.24-.5c-.11-.04-.24 0-.31.11l-1 1.73c-.06.11-.04.24.06.32l1.06.83a4 4 0 0 0 0 .98l-1.06.83a.26.26 0 0 0-.06.32l1 1.73c.06.11.19.15.31.11l1.24-.5c.26.2.54.37.85.49l.19 1.32c.02.12.12.21.25.21h2c.12 0 .23-.09.25-.21l.19-1.32c.3-.13.59-.29.84-.49l1.25.5c.11.04.24 0 .31-.11l1-1.73a.26.26 0 0 0-.06-.32zm-3.71 1.01c-.83 0-1.5-.67-1.5-1.5s.67-1.5 1.5-1.5 1.5.67 1.5 1.5-.67 1.5-1.5 1.5"/></g><defs><clipPath id="a"><path d="M0 0h24v24H0z"/></clipPath></defs></svg>
